X:342
T:Teinside Cottage 
C:Joe Buchanan's Scottish Tome - Page 127.0
I:127 0
R:March
Z:Carl Allison
L:1/8
M:6/8
K:D
"A7"A | "D"d3 a2 A | "D"d>fa "F#"f>e"D"d | "Em"e3 g2 f | "Em"e>fd "A7"c>BA |
"D"d3 a2 A | "D"d>fa "F#"f>e"D"d | "Em"e>fg "A7"f2 a | "Em"e>f"A7"A "D"d2 :|
g  | "D"a3 A2 d | "D"f2 a "F#"f>e"D"d | "Em"e>fg 2 "Bm"f2 d | "Em"B>e"E7"d "A7"c>BA |
"D"a3 A2 d |"D"f2 a "F#"f>e"D"d | "Em"e>fg f2 "A7"a | "Em"e>f"A7"A "D"d2 :|
A | "D"d2 A "E"e2 A | "F#"f>e"D7"d "G"g3 | "F#"a2 "D"f "G"g2 f | "Em"e>fd "A7"c>BA |
"D"d2 A "E"e2 "A7"A | "F#"f>e"D7"d  "G"g2 f | "Em"e>fg "A7"f2 a | "Em"e>f"A7"A "D"d2 :|
g | "D"a>Aa "Bm"d>ef | "Em"gf/g "A7"e>fg | "D"a3 "Bm"f2 d | "E7"e>fd "A7"c>BA |
| "D"a>Aa "Bm"d>ef | "Em"gf/g "A7"e>fg | "D"a>gf  "Em"f2 d | "A7"e>fd "D"d2 g |
| "D"a>Aa "Bm"d>ef | "Em"gf/g "A7"e>fg | "D"a3 "Bm"f2 d | "E7"e>fd "A7"c>BA |
"D"d2 A "E"e2 "A7"A | "F#"f>e"D7"d  "G"g2 f | "Em"e>fg "A7"f2 a | "Em"e>f"A7"A "D"d2 |]

